images/Match-Fees.svg

<svg height="512pt" viewBox="0 0 512 512" width="512pt" xmlns="http://www.w3.org/2000/svg"><path d="m216 16c-26.46875 0-48 21.53125-48 48s21.53125 48 48 48 48-21.53125 48-48-21.53125-48-48-48zm0 14.0625c18.71875 0 33.90625 15.21875 33.90625 33.9375s-15.1875 33.90625-33.90625 33.90625-33.90625-15.1875-33.90625-33.90625 15.1875-33.9375 33.90625-33.9375zm41.625 86.25c-16.3125-.21875-32.6875 1.96875-48.375 6.4375-13.71875 3.90625-26.65625 9.90625-38.5 17.8125l-25.28125 16.84375c-1.875 1.25-4.21875 1.65625-6.375 1.09375l-41.625-10.375c-12.84375-3.1875-25.875 4.625-29.09375 17.46875l-.75 2.90625c-2.90625 11.59375 3.28125 23.65625 14.375 28.125l44.40625 17.75c16.53125 6.625 35.40625 4.9375 50.5-4.5l12.34375-7.71875 55.34375 255.03125c2.875 13.21875 14.78125 22.8125 28.34375 22.8125 8.15625 0 15.96875-3.46875 21.4375-9.5 5.46875-6 8.1875-14.09375 7.40625-22.21875l-10.3125-108.3125 7 12.1875c8.4375 14.6875 22.90625 24.65625 39.65625 27.375l60.03125 9.6875c13.46875 2.15625 26.40625-5.15625 31.5-17.84375l.375-.90625c3.21875-8.0625 2.6875-17.03125-1.4375-24.625-4.15625-7.59375-11.40625-12.90625-19.875-14.5625l-48.84375-9.5625c-2.5-.5-4.625-2.15625-5.71875-4.4375l-20.25-42.65625c-4.1875-8.875-7.5625-18.21875-10-27.71875l-15.8125-62.125 85.90625 6.21875c11.75.84375 22.1875-6.75 25.03125-18.125l.59375-2.5c1.625-6.375.5-13.21875-3.03125-18.75s-9.28125-9.4375-15.71875-10.65625l-114.03125-21.71875c-9.625-1.84375-19.40625-2.8125-29.21875-2.9375zm-.1875 16c8.875.125 17.6875 1 26.40625 2.65625l114.03125 21.71875c2.15625.40625 4.03125 1.6875 5.21875 3.5625 1.1875 1.84375 1.5625 4.0625 1.03125 6.25l-.625 2.5c-.9375 3.78125-4.5625 6.375-8.34375 6.03125l-97-7.03125c-2.5-.125-5.0625.875-6.6875 2.84375-1.65625 1.96875-2.25 4.625-1.625 7.125l18.53125 72.90625c2.6875 10.5 6.40625 20.8125 11.09375 30.625l20.25 42.625c3.25 6.84375 9.625 11.8125 17.03125 13.25l48.875 9.59375c3.8125.75 7.03125 3.125 8.875 6.53125 1.875 3.40625 2.125 7.40625.6875 11l-.40625.96875c-2.25 5.65625-8.03125 8.9375-14.0625 7.96875l-60.09375-9.6875c-11.9375-1.9375-22.25-9.0625-28.28125-19.5625l-25.4375-44.1875c-1.875-3.25-5.75-4.78125-9.34375-3.625s-5.90625 4.65625-5.53125 8.375l13.8125 145.0625c.34375 3.6875-.84375 7.21875-3.3125 9.9375-2.5 2.75-5.90625 4.25-9.65625 4.25-6.03125 0-11.375-4.28125-12.625-10.21875l-57.75-266.15625c-.5625-2.53125-2.34375-4.65625-4.75-5.65625-1-.4375-2.03125-.625-3.09375-.625-1.46875 0-2.9375.40625-4.25 1.1875l-22 13.78125c-10.78125 6.75-24.25 7.9375-36.0625 3.21875l-44.4375-17.78125c-3.6875-1.46875-5.71875-5.46875-4.78125-9.375l.75-2.90625c1.0625-4.28125 5.40625-6.90625 9.71875-5.84375l41.59375 10.40625c6.5625 1.65625 13.53125.4375 19.125-3.28125l25.28125-16.875c10.46875-6.96875 21.90625-12.28125 34.03125-15.75 14.21875-4.0625 29.03125-6 43.8125-5.8125zm-169.4375 115.6875c-4.4375 0-8 3.59375-8 8v16c0 4.40625 3.5625 8 8 8s8-3.59375 8-8v-16c0-4.40625-3.5625-8-8-8zm40 0c-4.4375 0-8 3.59375-8 8v16c0 4.40625 3.5625 8 8 8s8-3.59375 8-8v-16c0-4.40625-3.5625-8-8-8zm40 0c-4.4375 0-8 3.59375-8 8v16c0 4.40625 3.5625 8 8 8s8-3.59375 8-8v-16c0-4.40625-3.5625-8-8-8zm208 0c-4.4375 0-8 3.59375-8 8v16c0 4.40625 3.5625 8 8 8s8-3.59375 8-8v-16c0-4.40625-3.5625-8-8-8zm40 0c-4.4375 0-8 3.59375-8 8v16c0 4.40625 3.5625 8 8 8s8-3.59375 8-8v-16c0-4.40625-3.5625-8-8-8zm40 0c-4.4375 0-8 3.59375-8 8v16c0 4.40625 3.5625 8 8 8s8-3.59375 8-8v-16c0-4.40625-3.5625-8-8-8zm-304 136c-26.46875 0-48 21.53125-48 48s21.53125 48 48 48 48-21.53125 48-48-21.53125-48-48-48zm0 14.21875c18.625 0 33.78125 15.15625 33.78125 33.78125s-15.15625 33.78125-33.78125 33.78125-33.78125-15.15625-33.78125-33.78125 15.15625-33.78125 33.78125-33.78125zm0 0" fill="#003e6b"/></svg>

<?xml version="1.0" encoding="UTF-8"?>
<svg xmlns="http://www.w3.org/2000/svg" xmlns:xlink="http://www.w3.org/1999/xlink" width="512pt" height="512pt" viewBox="0 0 512 512" version="1.1">
<g id="surface4496187">
<path style=" stroke:none;fill-rule:nonzero;fill:rgb(0%,24.313726%,41.960785%);fill-opacity:1;" d="M 216 16 C 189.53125 16 168 37.53125 168 64 C 168 90.46875 189.53125 112 216 112 C 242.46875 112 264 90.46875 264 64 C 264 37.53125 242.46875 16 216 16 Z M 216 30.0625 C 234.71875 30.0625 249.90625 45.28125 249.90625 64 C 249.90625 82.71875 234.71875 97.90625 216 97.90625 C 197.28125 97.90625 182.09375 82.71875 182.09375 64 C 182.09375 45.28125 197.28125 30.0625 216 30.0625 Z M 257.625 116.3125 C 241.3125 116.09375 224.9375 118.28125 209.25 122.75 C 195.53125 126.65625 182.59375 132.65625 170.75 140.5625 L 145.46875 157.40625 C 143.59375 158.65625 141.25 159.0625 139.09375 158.5 L 97.46875 148.125 C 84.625 144.9375 71.59375 152.75 68.375 165.59375 L 67.625 168.5 C 64.71875 180.09375 70.90625 192.15625 82 196.625 L 126.40625 214.375 C 142.9375 221 161.8125 219.3125 176.90625 209.875 L 189.25 202.15625 L 244.59375 457.1875 C 247.46875 470.40625 259.375 480 272.9375 480 C 281.09375 480 288.90625 476.53125 294.375 470.5 C 299.84375 464.5 302.5625 456.40625 301.78125 448.28125 L 291.46875 339.96875 L 298.46875 352.15625 C 306.90625 366.84375 321.375 376.8125 338.125 379.53125 L 398.15625 389.21875 C 411.625 391.375 424.5625 384.0625 429.65625 371.375 L 430.03125 370.46875 C 433.25 362.40625 432.71875 353.4375 428.59375 345.84375 C 424.4375 338.25 417.1875 332.9375 408.71875 331.28125 L 359.875 321.71875 C 357.375 321.21875 355.25 319.5625 354.15625 317.28125 L 333.90625 274.625 C 329.71875 265.75 326.34375 256.40625 323.90625 246.90625 L 308.09375 184.78125 L 394 191 C 405.75 191.84375 416.1875 184.25 419.03125 172.875 L 419.625 170.375 C 421.25 164 420.125 157.15625 416.59375 151.625 C 413.0625 146.09375 407.3125 142.1875 400.875 140.96875 L 286.84375 119.25 C 277.21875 117.40625 267.4375 116.4375 257.625 116.3125 Z M 257.4375 132.3125 C 266.3125 132.4375 275.125 133.3125 283.84375 134.96875 L 397.875 156.6875 C 400.03125 157.09375 401.90625 158.375 403.09375 160.25 C 404.28125 162.09375 404.65625 164.3125 404.125 166.5 L 403.5 169 C 402.5625 172.78125 398.9375 175.375 395.15625 175.03125 L 298.15625 168 C 295.65625 167.875 293.09375 168.875 291.46875 170.84375 C 289.8125 172.8125 289.21875 175.46875 289.84375 177.96875 L 308.375 250.875 C 311.0625 261.375 314.78125 271.6875 319.46875 281.5 L 339.71875 324.125 C 342.96875 330.96875 349.34375 335.9375 356.75 337.375 L 405.625 346.96875 C 409.4375 347.71875 412.65625 350.09375 414.5 353.5 C 416.375 356.90625 416.625 360.90625 415.1875 364.5 L 414.78125 365.46875 C 412.53125 371.125 406.75 374.40625 400.71875 373.4375 L 340.625 363.75 C 328.6875 361.8125 318.375 354.6875 312.34375 344.1875 L 286.90625 300 C 285.03125 296.75 281.15625 295.21875 277.5625 296.375 C 273.96875 297.53125 271.65625 301.03125 272.03125 304.75 L 285.84375 449.8125 C 286.1875 453.5 285 457.03125 282.53125 459.75 C 280.03125 462.5 276.625 464 272.875 464 C 266.84375 464 261.5 459.71875 260.25 453.78125 L 202.5 187.625 C 201.9375 185.09375 200.15625 182.96875 197.75 181.96875 C 196.75 181.53125 195.71875 181.34375 194.65625 181.34375 C 193.1875 181.34375 191.71875 181.75 190.40625 182.53125 L 168.40625 196.3125 C 157.625 203.0625 144.15625 204.25 132.34375 199.53125 L 87.90625 181.75 C 84.21875 180.28125 82.1875 176.28125 83.125 172.375 L 83.875 169.46875 C 84.9375 165.1875 89.28125 162.5625 93.59375 163.625 L 135.1875 174.03125 C 141.75 175.6875 148.71875 174.46875 154.3125 170.75 L 179.59375 153.875 C 190.0625 146.90625 201.5 141.59375 213.625 138.125 C 227.84375 134.0625 242.65625 132.125 257.4375 132.3125 Z M 88 248 C 83.5625 248 80 251.59375 80 256 L 80 272 C 80 276.40625 83.5625 280 88 280 C 92.4375 280 96 276.40625 96 272 L 96 256 C 96 251.59375 92.4375 248 88 248 Z M 128 248 C 123.5625 248 120 251.59375 120 256 L 120 272 C 120 276.40625 123.5625 280 128 280 C 132.4375 280 136 276.40625 136 272 L 136 256 C 136 251.59375 132.4375 248 128 248 Z M 168 248 C 163.5625 248 160 251.59375 160 256 L 160 272 C 160 276.40625 163.5625 280 168 280 C 172.4375 280 176 276.40625 176 272 L 176 256 C 176 251.59375 172.4375 248 168 248 Z M 376 248 C 371.5625 248 368 251.59375 368 256 L 368 272 C 368 276.40625 371.5625 280 376 280 C 380.4375 280 384 276.40625 384 272 L 384 256 C 384 251.59375 380.4375 248 376 248 Z M 416 248 C 411.5625 248 408 251.59375 408 256 L 408 272 C 408 276.40625 411.5625 280 416 280 C 420.4375 280 424 276.40625 424 272 L 424 256 C 424 251.59375 420.4375 248 416 248 Z M 456 248 C 451.5625 248 448 251.59375 448 256 L 448 272 C 448 276.40625 451.5625 280 456 280 C 460.4375 280 464 276.40625 464 272 L 464 256 C 464 251.59375 460.4375 248 456 248 Z M 152 384 C 125.53125 384 104 405.53125 104 432 C 104 458.46875 125.53125 480 152 480 C 178.46875 480 200 458.46875 200 432 C 200 405.53125 178.46875 384 152 384 Z M 152 398.21875 C 170.625 398.21875 185.78125 413.375 185.78125 432 C 185.78125 450.625 170.625 465.78125 152 465.78125 C 133.375 465.78125 118.21875 450.625 118.21875 432 C 118.21875 413.375 133.375 398.21875 152 398.21875 Z M 152 398.21875 "/>
</g>
</svg>
